X: 1188
T: All Hands Around
M:C|
L:1/8
R:Reel
B:O'Neill's 1188
N:Collected by F. O'Neill
Z:Transcribed by Trish O'Neil
K:G
G2Bed2Bd|gdBd cAFA|G2Bed2Be|dcAB GDEF|
G2Bed2Bd|gdBd cAFA|GBAc (3Bcd eg|fdcAG3z||
bagb a2(fa)|gfeg (fd)d2|bagba2(fa)|gfefd2ga|
bagba2fa|gfeg fdBA|GBAc (3Bcd eg|fdcAG3z||


